symbols/web/style/materialsymbolssharp/style_wght100grad200fill1_40px.svg

<svg xmlns="http://www.w3.org/2000/svg" height="40" width="40"><path d="M7 24.917v9.125l-3.375-1.75Zm8.417 11.875h-3.75V26.583Zm4.75-.959L11.25 11.542l16.167-5.834L36.292 30Zm-1.459-19.125q.75 0 1.334-.583.583-.583.583-1.375 0-.75-.583-1.333-.584-.584-1.334-.584-.833 0-1.396.584-.562.583-.562 1.333 0 .792.562 1.375.563.583 1.396.583Z"/></svg>

<svg xmlns="http://www.w3.org/2000/svg" height="40" width="40"><path d="M7 24.917V34.042L3.625 32.292ZM15.417 36.792H11.667V26.583ZM20.167 35.833 11.25 11.542 27.417 5.708 36.292 30ZM18.708 16.708Q19.458 16.708 20.042 16.125Q20.625 15.542 20.625 14.75Q20.625 14 20.042 13.417Q19.458 12.833 18.708 12.833Q17.875 12.833 17.312 13.417Q16.75 14 16.75 14.75Q16.75 15.542 17.312 16.125Q17.875 16.708 18.708 16.708Z"/></svg>
